images/content/semiregular-convex-uniform/enneagonal-prism.svg

<?xml version="1.0" encoding="UTF-8"?>
<svg xmlns="http://www.w3.org/2000/svg" xmlns:xlink="http://www.w3.org/1999/xlink" width="253.25pt" height="199.94pt" viewBox="0 0 253.25 199.94" version="1.2">
<g id="surface1">
<path style="fill-rule:nonzero;fill:rgb(77.539062%,52.929688%,56.443787%);fill-opacity:1;stroke-width:5;stroke-linecap:round;stroke-linejoin:round;stroke:rgb(0%,0%,0%);stroke-opacity:1;stroke-miterlimit:10;" d="M 755.316202 1735.453073 L 1286.572372 1839.784576 L 1288.76635 1379.127493 " transform="matrix(0.0997047,0,0,-0.0997047,0,199.614902)"/>
<path style="fill-rule:nonzero;fill:rgb(77.539062%,52.929688%,56.443787%);fill-opacity:1;stroke-width:5;stroke-linecap:round;stroke-linejoin:round;stroke:rgb(0%,0%,0%);stroke-opacity:1;stroke-miterlimit:10;" d="M 1288.76635 1379.127493 L 785.052443 1268.214055 L 755.316202 1735.453073 " transform="matrix(0.0997047,0,0,-0.0997047,0,199.614902)"/>
<path style="fill-rule:nonzero;fill:rgb(61.914062%,40.209961%,56.443787%);fill-opacity:1;stroke-width:5;stroke-linecap:round;stroke-linejoin:round;stroke:rgb(0%,0%,0%);stroke-opacity:1;stroke-miterlimit:10;" d="M 1798.631231 1283.963685 L 1288.76635 1379.127493 L 1286.572372 1839.784576 " transform="matrix(0.0997047,0,0,-0.0997047,0,199.614902)"/>
<path style=" stroke:none;fill-rule:nonzero;fill:rgb(66.209412%,74.21875%,90.818787%);fill-opacity:1;" d="M 128.496094 62.109375 L 78.273438 73.167969 L 209.507812 136.441406 "/>
<path style="fill:none;stroke-width:5;stroke-linecap:round;stroke-linejoin:round;stroke:rgb(0%,0%,0%);stroke-opacity:1;stroke-miterlimit:10;" d="M 1288.76635 1379.127493 L 785.052443 1268.214055 " transform="matrix(0.0997047,0,0,-0.0997047,0,199.614902)"/>
<path style=" stroke:none;fill-rule:nonzero;fill:rgb(66.209412%,74.21875%,90.818787%);fill-opacity:1;" d="M 179.332031 71.597656 L 128.496094 62.109375 L 209.507812 136.441406 "/>
<path style="fill:none;stroke-width:5;stroke-linecap:round;stroke-linejoin:round;stroke:rgb(0%,0%,0%);stroke-opacity:1;stroke-miterlimit:10;" d="M 1798.631231 1283.963685 L 1288.76635 1379.127493 " transform="matrix(0.0997047,0,0,-0.0997047,0,199.614902)"/>
<path style="fill-rule:nonzero;fill:rgb(61.914062%,40.209961%,56.443787%);fill-opacity:1;stroke-width:5;stroke-linecap:round;stroke-linejoin:round;stroke:rgb(0%,0%,0%);stroke-opacity:1;stroke-miterlimit:10;" d="M 1286.572372 1839.784576 L 1824.136229 1750.301604 L 1798.631231 1283.963685 " transform="matrix(0.0997047,0,0,-0.0997047,0,199.614902)"/>
<path style="fill-rule:nonzero;fill:rgb(34.692383%,19.798279%,53.125%);fill-opacity:1;stroke-width:5;stroke-linecap:round;stroke-linejoin:round;stroke:rgb(0%,0%,0%);stroke-opacity:1;stroke-miterlimit:10;" d="M 2128.315647 1005.289265 L 1798.631231 1283.963685 L 1824.136229 1750.301604 " transform="matrix(0.0997047,0,0,-0.0997047,0,199.614902)"/>
<path style="fill-rule:nonzero;fill:rgb(66.209412%,74.21875%,90.818787%);fill-opacity:1;stroke-width:5;stroke-linecap:round;stroke-linejoin:round;stroke:rgb(0%,0%,0%);stroke-opacity:1;stroke-miterlimit:10;" d="M 2101.2827 633.605837 L 2128.315647 1005.289265 L 1798.631231 1283.963685 " transform="matrix(0.0997047,0,0,-0.0997047,0,199.614902)"/>
<path style="fill-rule:nonzero;fill:rgb(93.75%,68.554688%,52.734375%);fill-opacity:1;stroke-width:5;stroke-linecap:round;stroke-linejoin:round;stroke:rgb(0%,0%,0%);stroke-opacity:1;stroke-miterlimit:10;" d="M 424.613154 1460.93154 L 755.316202 1735.453073 L 785.052443 1268.214055 " transform="matrix(0.0997047,0,0,-0.0997047,0,199.614902)"/>
<path style="fill-rule:nonzero;fill:rgb(93.75%,68.554688%,52.734375%);fill-opacity:1;stroke-width:5;stroke-linecap:round;stroke-linejoin:round;stroke:rgb(0%,0%,0%);stroke-opacity:1;stroke-miterlimit:10;" d="M 785.052443 1268.214055 L 474.565338 977.864536 L 424.613154 1460.93154 " transform="matrix(0.0997047,0,0,-0.0997047,0,199.614902)"/>
<path style=" stroke:none;fill-rule:nonzero;fill:rgb(66.209412%,74.21875%,90.818787%);fill-opacity:1;" d="M 78.273438 73.167969 L 47.316406 102.117188 L 209.507812 136.441406 "/>
<path style="fill:none;stroke-width:5;stroke-linecap:round;stroke-linejoin:round;stroke:rgb(0%,0%,0%);stroke-opacity:1;stroke-miterlimit:10;" d="M 785.052443 1268.214055 L 474.565338 977.864536 " transform="matrix(0.0997047,0,0,-0.0997047,0,199.614902)"/>
<path style="fill-rule:nonzero;fill:rgb(34.692383%,19.798279%,53.125%);fill-opacity:1;stroke-width:5;stroke-linecap:round;stroke-linejoin:round;stroke:rgb(0%,0%,0%);stroke-opacity:1;stroke-miterlimit:10;" d="M 1824.136229 1750.301604 L 2174.62426 1486.867498 L 2128.315647 1005.289265 " transform="matrix(0.0997047,0,0,-0.0997047,0,199.614902)"/>
<path style="fill-rule:nonzero;fill:rgb(25.097656%,25.097656%,34.104919%);fill-opacity:1;stroke-width:5;stroke-linecap:round;stroke-linejoin:round;stroke:rgb(0%,0%,0%);stroke-opacity:1;stroke-miterlimit:10;" d="M 2101.2827 633.605837 L 2128.315647 1005.289265 L 2174.62426 1486.867498 " transform="matrix(0.0997047,0,0,-0.0997047,0,199.614902)"/>
<path style="fill-rule:nonzero;fill:rgb(25.097656%,25.097656%,34.104919%);fill-opacity:1;stroke-width:5;stroke-linecap:round;stroke-linejoin:round;stroke:rgb(0%,0%,0%);stroke-opacity:1;stroke-miterlimit:10;" d="M 2174.62426 1486.867498 L 2149.863648 1132.775074 L 2101.2827 633.605837 " transform="matrix(0.0997047,0,0,-0.0997047,0,199.614902)"/>
<path style=" stroke:none;fill-rule:nonzero;fill:rgb(64.646912%,76.171875%,93.164062%);fill-opacity:1;" d="M 128.277344 16.179688 L 75.308594 26.582031 L 214.351562 86.671875 "/>
<path style="fill:none;stroke-width:5;stroke-linecap:round;stroke-linejoin:round;stroke:rgb(0%,0%,0%);stroke-opacity:1;stroke-miterlimit:10;" d="M 1286.572372 1839.784576 L 755.316202 1735.453073 " transform="matrix(0.0997047,0,0,-0.0997047,0,199.614902)"/>
<path style=" stroke:none;fill-rule:nonzero;fill:rgb(64.646912%,76.171875%,93.164062%);fill-opacity:1;" d="M 181.875 25.101562 L 128.277344 16.179688 L 214.351562 86.671875 "/>
<path style="fill:none;stroke-width:5;stroke-linecap:round;stroke-linejoin:round;stroke:rgb(0%,0%,0%);stroke-opacity:1;stroke-miterlimit:10;" d="M 1824.136229 1750.301604 L 1286.572372 1839.784576 " transform="matrix(0.0997047,0,0,-0.0997047,0,199.614902)"/>
<path style="fill-rule:nonzero;fill:rgb(64.646912%,76.171875%,93.164062%);fill-opacity:1;stroke-width:5;stroke-linecap:round;stroke-linejoin:round;stroke:rgb(0%,0%,0%);stroke-opacity:1;stroke-miterlimit:10;" d="M 2149.863648 1132.775074 L 2174.62426 1486.867498 L 1824.136229 1750.301604 " transform="matrix(0.0997047,0,0,-0.0997047,0,199.614902)"/>
<path style=" stroke:none;fill-rule:nonzero;fill:rgb(64.646912%,76.171875%,93.164062%);fill-opacity:1;" d="M 75.308594 26.582031 L 42.335938 53.953125 L 214.351562 86.671875 "/>
<path style="fill:none;stroke-width:5;stroke-linecap:round;stroke-linejoin:round;stroke:rgb(0%,0%,0%);stroke-opacity:1;stroke-miterlimit:10;" d="M 755.316202 1735.453073 L 424.613154 1460.93154 " transform="matrix(0.0997047,0,0,-0.0997047,0,199.614902)"/>
<path style="fill-rule:nonzero;fill:rgb(29.588318%,29.588318%,29.588318%);fill-opacity:1;stroke-width:5;stroke-linecap:round;stroke-linejoin:round;stroke:rgb(0%,0%,0%);stroke-opacity:1;stroke-miterlimit:10;" d="M 480.481244 1105.89884 L 424.613154 1460.93154 L 474.565338 977.864536 " transform="matrix(0.0997047,0,0,-0.0997047,0,199.614902)"/>
<path style=" stroke:none;fill-rule:nonzero;fill:rgb(66.209412%,74.21875%,90.818787%);fill-opacity:1;" d="M 47.316406 102.117188 L 52.949219 139.238281 L 209.507812 136.441406 "/>
<path style="fill:none;stroke-width:5;stroke-linecap:round;stroke-linejoin:round;stroke:rgb(0%,0%,0%);stroke-opacity:1;stroke-miterlimit:10;" d="M 474.565338 977.864536 L 531.060279 605.554257 " transform="matrix(0.0997047,0,0,-0.0997047,0,199.614902)"/>
<path style="fill-rule:nonzero;fill:rgb(29.588318%,29.588318%,29.588318%);fill-opacity:1;stroke-width:5;stroke-linecap:round;stroke-linejoin:round;stroke:rgb(0%,0%,0%);stroke-opacity:1;stroke-miterlimit:10;" d="M 474.565338 977.864536 L 531.060279 605.554257 L 480.481244 1105.89884 " transform="matrix(0.0997047,0,0,-0.0997047,0,199.614902)"/>
<path style=" stroke:none;fill-rule:nonzero;fill:rgb(64.646912%,76.171875%,93.164062%);fill-opacity:1;" d="M 42.335938 53.953125 L 47.90625 89.351562 L 214.351562 86.671875 "/>
<path style="fill:none;stroke-width:5;stroke-linecap:round;stroke-linejoin:round;stroke:rgb(0%,0%,0%);stroke-opacity:1;stroke-miterlimit:10;" d="M 424.613154 1460.93154 L 480.481244 1105.89884 " transform="matrix(0.0997047,0,0,-0.0997047,0,199.614902)"/>
<path style="fill-rule:nonzero;fill:rgb(66.209412%,74.21875%,90.818787%);fill-opacity:1;stroke-width:5;stroke-linecap:round;stroke-linejoin:round;stroke:rgb(0%,0%,0%);stroke-opacity:1;stroke-miterlimit:10;" d="M 1001.66862 336.870274 L 1655.86593 349.211402 L 2101.2827 633.605837 " transform="matrix(0.0997047,0,0,-0.0997047,0,199.614902)"/>
<path style=" stroke:none;fill-rule:nonzero;fill:rgb(66.209412%,74.21875%,90.818787%);fill-opacity:1;" d="M 52.949219 139.238281 L 99.871094 166.027344 L 209.507812 136.441406 "/>
<path style="fill:none;stroke-width:5;stroke-linecap:round;stroke-linejoin:round;stroke:rgb(0%,0%,0%);stroke-opacity:1;stroke-miterlimit:10;" d="M 531.060279 605.554257 L 1001.66862 336.870274 " transform="matrix(0.0997047,0,0,-0.0997047,0,199.614902)"/>
<path style="fill-rule:nonzero;fill:rgb(89.451599%,58.789062%,45.800781%);fill-opacity:1;stroke-width:5;stroke-linecap:round;stroke-linejoin:round;stroke:rgb(0%,0%,0%);stroke-opacity:1;stroke-miterlimit:10;" d="M 1655.86593 349.211402 L 2101.2827 633.605837 L 2149.863648 1132.775074 " transform="matrix(0.0997047,0,0,-0.0997047,0,199.614902)"/>
<path style="fill-rule:nonzero;fill:rgb(40.501404%,18.60199%,46.508789%);fill-opacity:1;stroke-width:5;stroke-linecap:round;stroke-linejoin:round;stroke:rgb(0%,0%,0%);stroke-opacity:1;stroke-miterlimit:10;" d="M 979.728838 847.636254 L 480.481244 1105.89884 L 531.060279 605.554257 " transform="matrix(0.0997047,0,0,-0.0997047,0,199.614902)"/>
<path style="fill-rule:nonzero;fill:rgb(40.501404%,18.60199%,46.508789%);fill-opacity:1;stroke-width:5;stroke-linecap:round;stroke-linejoin:round;stroke:rgb(0%,0%,0%);stroke-opacity:1;stroke-miterlimit:10;" d="M 531.060279 605.554257 L 1001.66862 336.870274 L 979.728838 847.636254 " transform="matrix(0.0997047,0,0,-0.0997047,0,199.614902)"/>
<path style="fill-rule:nonzero;fill:rgb(89.451599%,58.789062%,45.800781%);fill-opacity:1;stroke-width:5;stroke-linecap:round;stroke-linejoin:round;stroke:rgb(0%,0%,0%);stroke-opacity:1;stroke-miterlimit:10;" d="M 2149.863648 1132.775074 L 1677.609822 859.546422 L 1655.86593 349.211402 " transform="matrix(0.0997047,0,0,-0.0997047,0,199.614902)"/>
<path style="fill-rule:nonzero;fill:rgb(69.334412%,42.088318%,50.78125%);fill-opacity:1;stroke-width:5;stroke-linecap:round;stroke-linejoin:round;stroke:rgb(0%,0%,0%);stroke-opacity:1;stroke-miterlimit:10;" d="M 1001.66862 336.870274 L 1655.86593 349.211402 L 1677.609822 859.546422 " transform="matrix(0.0997047,0,0,-0.0997047,0,199.614902)"/>
<path style="fill-rule:nonzero;fill:rgb(69.334412%,42.088318%,50.78125%);fill-opacity:1;stroke-width:5;stroke-linecap:round;stroke-linejoin:round;stroke:rgb(0%,0%,0%);stroke-opacity:1;stroke-miterlimit:10;" d="M 1677.609822 859.546422 L 979.728838 847.636254 L 1001.66862 336.870274 " transform="matrix(0.0997047,0,0,-0.0997047,0,199.614902)"/>
<path style="fill-rule:nonzero;fill:rgb(64.646912%,76.171875%,93.164062%);fill-opacity:1;stroke-width:5;stroke-linecap:round;stroke-linejoin:round;stroke:rgb(0%,0%,0%);stroke-opacity:1;stroke-miterlimit:10;" d="M 979.728838 847.636254 L 1677.609822 859.546422 L 2149.863648 1132.775074 " transform="matrix(0.0997047,0,0,-0.0997047,0,199.614902)"/>
<path style=" stroke:none;fill-rule:nonzero;fill:rgb(64.646912%,76.171875%,93.164062%);fill-opacity:1;" d="M 47.90625 89.351562 L 97.683594 115.101562 L 214.351562 86.671875 "/>
<path style="fill:none;stroke-width:5;stroke-linecap:round;stroke-linejoin:round;stroke:rgb(0%,0%,0%);stroke-opacity:1;stroke-miterlimit:10;" d="M 480.481244 1105.89884 L 979.728838 847.636254 " transform="matrix(0.0997047,0,0,-0.0997047,0,199.614902)"/>
</g>
</svg>

<svg xmlns="http://www.w3.org/2000/svg" width="337.667" height="266.587" viewBox="0 0 253.25 199.94" version="1.2"><path style="fill-rule:nonzero;fill:#c68790;fill-opacity:1;stroke-width:5;stroke-linecap:round;stroke-linejoin:round;stroke:#000;stroke-opacity:1;stroke-miterlimit:10" d="m755.316 1735.453 531.256 104.332 2.194-460.658" transform="matrix(.0997 0 0 -.0997 0 199.615)"/><path style="fill-rule:nonzero;fill:#c68790;fill-opacity:1;stroke-width:5;stroke-linecap:round;stroke-linejoin:round;stroke:#000;stroke-opacity:1;stroke-miterlimit:10" d="m1288.766 1379.127-503.714-110.913-29.736 467.24" transform="matrix(.0997 0 0 -.0997 0 199.615)"/><path style="fill-rule:nonzero;fill:#9e6790;fill-opacity:1;stroke-width:5;stroke-linecap:round;stroke-linejoin:round;stroke:#000;stroke-opacity:1;stroke-miterlimit:10" d="m1798.631 1283.964-509.865 95.163-2.194 460.658" transform="matrix(.0997 0 0 -.0997 0 199.615)"/><path style="stroke:none;fill-rule:nonzero;fill:#a9bde8;fill-opacity:1" d="M128.496 62.11 78.273 73.167l131.235 63.273"/><path style="fill:none;stroke-width:5;stroke-linecap:round;stroke-linejoin:round;stroke:#000;stroke-opacity:1;stroke-miterlimit:10" d="m1288.766 1379.127-503.714-110.913" transform="matrix(.0997 0 0 -.0997 0 199.615)"/><path style="stroke:none;fill-rule:nonzero;fill:#a9bde8;fill-opacity:1" d="m179.332 71.598-50.836-9.489 81.012 74.332"/><path style="fill:none;stroke-width:5;stroke-linecap:round;stroke-linejoin:round;stroke:#000;stroke-opacity:1;stroke-miterlimit:10" d="m1798.631 1283.964-509.865 95.163" transform="matrix(.0997 0 0 -.0997 0 199.615)"/><path style="fill-rule:nonzero;fill:#9e6790;fill-opacity:1;stroke-width:5;stroke-linecap:round;stroke-linejoin:round;stroke:#000;stroke-opacity:1;stroke-miterlimit:10" d="m1286.572 1839.785 537.564-89.483-25.505-466.338" transform="matrix(.0997 0 0 -.0997 0 199.615)"/><path style="fill-rule:nonzero;fill:#583287;fill-opacity:1;stroke-width:5;stroke-linecap:round;stroke-linejoin:round;stroke:#000;stroke-opacity:1;stroke-miterlimit:10" d="m2128.316 1005.29-329.685 278.674 25.505 466.338" transform="matrix(.0997 0 0 -.0997 0 199.615)"/><path style="fill-rule:nonzero;fill:#a9bde8;fill-opacity:1;stroke-width:5;stroke-linecap:round;stroke-linejoin:round;stroke:#000;stroke-opacity:1;stroke-miterlimit:10" d="m2101.283 633.606 27.033 371.683-329.685 278.675" transform="matrix(.0997 0 0 -.0997 0 199.615)"/><path style="fill-rule:nonzero;fill:#efaf86;fill-opacity:1;stroke-width:5;stroke-linecap:round;stroke-linejoin:round;stroke:#000;stroke-opacity:1;stroke-miterlimit:10" d="m424.613 1460.932 330.703 274.521 29.736-467.239M785.052 1268.214l-310.487-290.35-49.952 483.068" transform="matrix(.0997 0 0 -.0997 0 199.615)"/><path style="stroke:none;fill-rule:nonzero;fill:#a9bde8;fill-opacity:1" d="m78.273 73.168-30.957 28.95 162.192 34.323"/><path style="fill:none;stroke-width:5;stroke-linecap:round;stroke-linejoin:round;stroke:#000;stroke-opacity:1;stroke-miterlimit:10" d="m785.052 1268.214-310.487-290.35" transform="matrix(.0997 0 0 -.0997 0 199.615)"/><path style="fill-rule:nonzero;fill:#583287;fill-opacity:1;stroke-width:5;stroke-linecap:round;stroke-linejoin:round;stroke:#000;stroke-opacity:1;stroke-miterlimit:10" d="m1824.136 1750.302 350.488-263.435-46.308-481.578" transform="matrix(.0997 0 0 -.0997 0 199.615)"/><path style="fill-rule:nonzero;fill:#404057;fill-opacity:1;stroke-width:5;stroke-linecap:round;stroke-linejoin:round;stroke:#000;stroke-opacity:1;stroke-miterlimit:10" d="m2101.283 633.606 27.033 371.683 46.308 481.578M2174.624 1486.867l-24.76-354.092-48.581-499.17" transform="matrix(.0997 0 0 -.0997 0 199.615)"/><path style="stroke:none;fill-rule:nonzero;fill:#a5c2ee;fill-opacity:1" d="M128.277 16.18 75.31 26.582l139.043 60.09"/><path style="fill:none;stroke-width:5;stroke-linecap:round;stroke-linejoin:round;stroke:#000;stroke-opacity:1;stroke-miterlimit:10" d="m1286.572 1839.785-531.256-104.332" transform="matrix(.0997 0 0 -.0997 0 199.615)"/><path style="stroke:none;fill-rule:nonzero;fill:#a5c2ee;fill-opacity:1" d="m181.875 25.102-53.598-8.922 86.075 70.492"/><path style="fill:none;stroke-width:5;stroke-linecap:round;stroke-linejoin:round;stroke:#000;stroke-opacity:1;stroke-miterlimit:10" d="m1824.136 1750.302-537.564 89.483" transform="matrix(.0997 0 0 -.0997 0 199.615)"/><path style="fill-rule:nonzero;fill:#a5c2ee;fill-opacity:1;stroke-width:5;stroke-linecap:round;stroke-linejoin:round;stroke:#000;stroke-opacity:1;stroke-miterlimit:10" d="m2149.864 1132.775 24.76 354.092-350.488 263.435" transform="matrix(.0997 0 0 -.0997 0 199.615)"/><path style="stroke:none;fill-rule:nonzero;fill:#a5c2ee;fill-opacity:1" d="M75.309 26.582 42.336 53.953l172.016 32.719"/><path style="fill:none;stroke-width:5;stroke-linecap:round;stroke-linejoin:round;stroke:#000;stroke-opacity:1;stroke-miterlimit:10" d="m755.316 1735.453-330.703-274.521" transform="matrix(.0997 0 0 -.0997 0 199.615)"/><path style="fill-rule:nonzero;fill:#4b4b4b;fill-opacity:1;stroke-width:5;stroke-linecap:round;stroke-linejoin:round;stroke:#000;stroke-opacity:1;stroke-miterlimit:10" d="m480.481 1105.899-55.868 355.033 49.952-483.067" transform="matrix(.0997 0 0 -.0997 0 199.615)"/><path style="stroke:none;fill-rule:nonzero;fill:#a9bde8;fill-opacity:1" d="m47.316 102.117 5.633 37.121 156.559-2.797"/><path style="fill:none;stroke-width:5;stroke-linecap:round;stroke-linejoin:round;stroke:#000;stroke-opacity:1;stroke-miterlimit:10" d="m474.565 977.865 56.495-372.31" transform="matrix(.0997 0 0 -.0997 0 199.615)"/><path style="fill-rule:nonzero;fill:#4b4b4b;fill-opacity:1;stroke-width:5;stroke-linecap:round;stroke-linejoin:round;stroke:#000;stroke-opacity:1;stroke-miterlimit:10" d="m474.565 977.865 56.495-372.31-50.579 500.344" transform="matrix(.0997 0 0 -.0997 0 199.615)"/><path style="stroke:none;fill-rule:nonzero;fill:#a5c2ee;fill-opacity:1" d="m42.336 53.953 5.57 35.399 166.446-2.68"/><path style="fill:none;stroke-width:5;stroke-linecap:round;stroke-linejoin:round;stroke:#000;stroke-opacity:1;stroke-miterlimit:10" d="m424.613 1460.932 55.868-355.033" transform="matrix(.0997 0 0 -.0997 0 199.615)"/><path style="fill-rule:nonzero;fill:#a9bde8;fill-opacity:1;stroke-width:5;stroke-linecap:round;stroke-linejoin:round;stroke:#000;stroke-opacity:1;stroke-miterlimit:10" d="m1001.669 336.87 654.197 12.341 445.417 284.395" transform="matrix(.0997 0 0 -.0997 0 199.615)"/><path style="stroke:none;fill-rule:nonzero;fill:#a9bde8;fill-opacity:1" d="m52.95 139.238 46.921 26.79 109.637-29.587"/><path style="fill:none;stroke-width:5;stroke-linecap:round;stroke-linejoin:round;stroke:#000;stroke-opacity:1;stroke-miterlimit:10" d="M531.06 605.554 1001.67 336.87" transform="matrix(.0997 0 0 -.0997 0 199.615)"/><path style="fill-rule:nonzero;fill:#e49675;fill-opacity:1;stroke-width:5;stroke-linecap:round;stroke-linejoin:round;stroke:#000;stroke-opacity:1;stroke-miterlimit:10" d="m1655.866 349.211 445.417 284.395 48.58 499.17" transform="matrix(.0997 0 0 -.0997 0 199.615)"/><path style="fill-rule:nonzero;fill:#672f77;fill-opacity:1;stroke-width:5;stroke-linecap:round;stroke-linejoin:round;stroke:#000;stroke-opacity:1;stroke-miterlimit:10" d="M979.729 847.636 480.48 1105.9l50.58-500.345M531.06 605.554 1001.67 336.87l-21.94 510.766" transform="matrix(.0997 0 0 -.0997 0 199.615)"/><path style="fill-rule:nonzero;fill:#e49675;fill-opacity:1;stroke-width:5;stroke-linecap:round;stroke-linejoin:round;stroke:#000;stroke-opacity:1;stroke-miterlimit:10" d="M2149.864 1132.775 1677.61 859.546l-21.744-510.335" transform="matrix(.0997 0 0 -.0997 0 199.615)"/><path style="fill-rule:nonzero;fill:#b16b81;fill-opacity:1;stroke-width:5;stroke-linecap:round;stroke-linejoin:round;stroke:#000;stroke-opacity:1;stroke-miterlimit:10" d="m1001.669 336.87 654.197 12.341 21.744 510.335" transform="matrix(.0997 0 0 -.0997 0 199.615)"/><path style="fill-rule:nonzero;fill:#b16b81;fill-opacity:1;stroke-width:5;stroke-linecap:round;stroke-linejoin:round;stroke:#000;stroke-opacity:1;stroke-miterlimit:10" d="m1677.61 859.546-697.881-11.91 21.94-510.766" transform="matrix(.0997 0 0 -.0997 0 199.615)"/><path style="fill-rule:nonzero;fill:#a5c2ee;fill-opacity:1;stroke-width:5;stroke-linecap:round;stroke-linejoin:round;stroke:#000;stroke-opacity:1;stroke-miterlimit:10" d="m979.729 847.636 697.88 11.91 472.255 273.23" transform="matrix(.0997 0 0 -.0997 0 199.615)"/><path style="stroke:none;fill-rule:nonzero;fill:#a5c2ee;fill-opacity:1" d="m47.906 89.352 49.778 25.75 116.668-28.43"/><path style="fill:none;stroke-width:5;stroke-linecap:round;stroke-linejoin:round;stroke:#000;stroke-opacity:1;stroke-miterlimit:10" d="M480.481 1105.899 979.73 847.636" transform="matrix(.0997 0 0 -.0997 0 199.615)"/></svg>
